X: 10
T: the Carle he came o'er the croft
%R: reel, march
B: "Twenty Four Favourite Dances for the Year 1783", Thomas Straight, ed. p.5 #2
F: http://www.vwml.org/browse/browse-collections-dance-tune-books/browse-straights1783
Z: 2014 John Chambers <jc:trillian.mit.edu>
M: C|
L: 1/8
K: Amix
|:\
A>BAe cAce | g2d2 B/=c/d BG |\
A>BAe ^cAce | a^g/f/ ed c/d/e cA :|
|:\
aA2B c>def | gG2d B/=c/d BG |\
A2 ^gf/g/ a2 ef/g/ | a^g/f/ ed c/d/e cA :|
% - - - - - - - - - - Dance description - - - - - - - - - -
%%begintext align
%% Hands across left back again .|. change sides
%% back again :|. cross over 1 Cu half figure
%% at bottom .|: right & left at top :|:
%%endtext
